public/svg/principle.svg

<svg width="24" height="24" viewBox="0 0 24 24" fill="none" xmlns="http://www.w3.org/2000/svg">
<path fill-rule="evenodd" clip-rule="evenodd" d="M3.37207 20.3402V8.97016C3.37244 7.26907 3.87495 5.60595 4.8166 4.18927C5.75826 2.77259 7.09716 1.6654 8.66545 1.0065C10.2337 0.347602 11.9616 0.166313 13.6325 0.48536C15.3034 0.804406 16.843 1.60959 18.0582 2.79998C19.2734 3.99036 20.1101 5.51298 20.4635 7.17694C20.817 8.84091 20.6713 10.5722 20.0449 12.1537C19.4185 13.7353 18.3391 15.0967 16.9422 16.0674C15.5452 17.038 13.8928 17.5747 12.1921 17.6102C11.8714 17.6129 11.5533 17.5525 11.256 17.4323C10.9586 17.3121 10.6879 17.1346 10.4592 16.9098C9.99726 16.4557 9.73464 15.8368 9.72907 15.1892C9.7235 14.5415 9.97544 13.9182 10.4295 13.4563C10.8835 12.9944 11.5024 12.7317 12.1501 12.7262C12.8861 12.6979 13.5977 12.4539 14.1961 12.0244C14.7945 11.5949 15.2535 10.9989 15.5158 10.3105C15.7781 9.62222 15.8323 8.87195 15.6715 8.1531C15.5107 7.43424 15.1421 6.77853 14.6115 6.26755C14.081 5.75657 13.4119 5.41288 12.6875 5.27925C11.9631 5.14561 11.2154 5.22793 10.5374 5.51596C9.85944 5.80399 9.28113 6.28501 8.87444 6.89918C8.46774 7.51335 8.25061 8.23354 8.25007 8.97016V21.5582C8.2493 22.0043 8.12634 22.4416 7.89454 22.8228C7.66275 23.2039 7.33097 23.5143 6.93523 23.7202C6.53949 23.9261 6.09491 24.0197 5.64974 23.9908C5.20458 23.9619 4.77584 23.8115 4.41007 23.5562C4.63201 23.4972 4.83962 23.3936 5.02025 23.2518C5.20087 23.1099 5.35074 22.9328 5.46071 22.7312C5.57068 22.5296 5.63847 22.3077 5.65992 22.0791C5.68138 21.8504 5.65607 21.6198 5.58553 21.4013C5.51499 21.1827 5.4007 20.9808 5.24962 20.8078C5.09854 20.6349 4.91383 20.4945 4.70674 20.3952C4.49966 20.2959 4.27453 20.2399 4.04507 20.2304C3.81561 20.2209 3.58663 20.2583 3.37207 20.3402ZM12.1921 16.8602C12.4224 16.8735 12.6529 16.8396 12.8696 16.7605C13.0863 16.6814 13.2846 16.5589 13.4522 16.4004C13.6198 16.2419 13.7533 16.0509 13.8443 15.8389C13.9354 15.627 13.9821 15.3987 13.9817 15.168C13.9813 14.9373 13.9338 14.7091 13.8419 14.4975C13.7501 14.2859 13.616 14.0953 13.4478 13.9374C13.2797 13.7795 13.081 13.6577 12.864 13.5794C12.647 13.5011 12.4163 13.468 12.1861 13.4822C11.7555 13.5078 11.351 13.697 11.0553 14.0109C10.7595 14.3248 10.5948 14.7398 10.5948 15.1712C10.5948 15.6025 10.7595 16.0175 11.0553 16.3314C11.351 16.6454 11.7555 16.8345 12.1861 16.8602H12.1921Z" fill="url(#paint0_linear)"/>
<defs>
<linearGradient id="paint0_linear" x1="12.0001" y1="0.33016" x2="12.0001" y2="15.1502" gradientUnits="userSpaceOnUse">
<stop stop-color="#D378E5"/>
<stop offset="1" stop-color="#7526C2"/>
</linearGradient>
</defs>
</svg>

<svg xmlns="http://www.w3.org/2000/svg" width="24" height="24" fill="none" xmlns:v="https://vecta.io/nano"><path fill-rule="evenodd" d="M3.372 20.34V8.97a8.64 8.64 0 0 1 5.293-7.964A8.64 8.64 0 0 1 18.058 2.8a8.64 8.64 0 0 1 1.987 9.354 8.64 8.64 0 0 1-7.853 5.456c-.321.003-.639-.058-.936-.178a2.44 2.44 0 0 1-1.527-2.243 2.44 2.44 0 0 1 2.421-2.463c.736-.028 1.448-.272 2.046-.702s1.057-1.025 1.32-1.714.316-1.439.156-2.157-.529-1.375-1.06-1.886-1.2-.855-1.924-.988-1.472-.051-2.15.237-1.256.769-1.663 1.383-.624 1.334-.624 2.071v12.588a2.44 2.44 0 0 1-1.315 2.162 2.44 2.44 0 0 1-1.285.271c-.445-.029-.874-.179-1.24-.435a1.69 1.69 0 0 0 .61-.304c.181-.142.33-.319.44-.521a1.69 1.69 0 0 0 .125-1.33 1.69 1.69 0 0 0-.336-.593c-.151-.173-.336-.313-.543-.413a1.69 1.69 0 0 0-1.335-.055zm8.82-3.48a1.69 1.69 0 0 0 1.26-.46 1.69 1.69 0 0 0 .53-1.232 1.69 1.69 0 0 0-.534-1.231 1.69 1.69 0 0 0-1.262-.455 1.69 1.69 0 0 0-1.591 1.689 1.69 1.69 0 0 0 1.591 1.689h.006z" fill="url(#A)"/><defs><linearGradient id="A" x1="12" y1=".33" x2="12" y2="15.15" gradientUnits="userSpaceOnUse"><stop stop-color="#d378e5"/><stop offset="1" stop-color="#7526c2"/></linearGradient></defs></svg>
